!!!COM: Music21
!!!OTL: A Gaita de Melchor
!!!OMV: pezas_polca_a-gaita-de-melchor_a-gaita-de-melchor-partitura.musicxml
**kern
*part1
*staff1
*I"Bagpipes
*I'Bag
*clefG^2
*k[b-]
*F:
*M2/4
=1
!LO:TX:a:t=Allegretto
*MM112
!LO:TX:a:t=[quarter]=112
[4cc
12ccL]
12dd
12ccJ
=
[4ccc
12cccL]
12ddd
12cccJ
=
12aaL
12ccc
12bb-J
12ggL
12bb-
12aaJ
=
[4ff
12ffL]
12dd
12ccJ
=
[4ccc
12cccL]
12ddd
12cccJ
=
12aaL
12ccc
12bb-J
12ggL
12bb-
12aaJ
=
[2ff
=
4ff]
8cccL
8aaJ
!!linebreak:original
=||
8ffL
16ffL
16eeJJ
16ffLL
16gg
16aa
16bb-JJ
!!linebreak:original
=
8cccL
16cccL
16dddJJ
16cccLL
16bb-
16aa
16cccJJ
=
16bb-LL
16dd
16ff
16bb-JJ
16aaLL
16cc
16ff
16aaJJ
=
16ggLL
16ff
16ee
16ddJJ
8ccL
16aaL
16cccJJ
=
8ffL
16ffL
16eeJJ
16ffLL
16gg
16aa
16bb-JJ
=
8cccL
16cccL
16dddJJ
16cccLL
16bb-
16aa
16cccJJ
!!linebreak:original
=
24bb-LL
24aa
24gg
24ff
24ee
24ddJJ
24ccLL
24dd
24ee
24ff
24gg
24aaJJ
=
24ffLL
24ee
24ff
24gg
24aa
24bb-JJ
8cccL
8aaJ
=||
8ffL
16ffL
16eeJJ
16ffLL
16gg
16aa
16bb-JJ
!!linebreak:original
=
8cccL
16cccL
16dddJJ
16cccLL
16bb-
16aa
16cccJJ
=
16bb-LL
16dd
16ff
16bb-JJ
16aaLL
16cc
16ff
16aaJJ
=
16ggLL
16ff
16ee
16ddJJ
8ccL
16aaL
16cccJJ
=
8ffL
16ffL
16eeJJ
16ffLL
16gg
16aa
16bb-JJ
=
8cccL
16cccL
16dddJJ
16cccLL
16bb-
16aa
16cccJJ
!!linebreak:original
=
24bb-LL
24aa
24gg
24ff
24ee
24ddJJ
24ccLL
24dd
24ee
24ff
24gg
24aaJJ
=
8ffL
16ffL
16eeJJ
8ff
24ffLL
24gg
24aaJJ
=||
8bb-L
16bb-L
16aaJJ
16aaLL
16gg
16gg
16ffJJ
=
16ffLL
16ee
16ee
16ddJJ
8cc
24ffLL
24gg
24aaJJ
!!pagebreak:original
=
8bb-L
16bb-L
16aaJJ
16dddLL
16ccc
16bb-
16ggJJ
=
16aaLL
16gg
16aa
16bb-JJ
8ccc
24ffLL
24gg
24aaJJ
=
8bb-L
16bb-L
16aaJJ
16aaLL
16gg
16gg
16ffJJ
=
16ffLL
16ee
16ee
16ddJJ
8cc
24ggLL
24aa
24bb-JJ
=
16aaLL
16aa-X
16aan
16ccJJ
16ggLL
16gg-X
16ggn
16ccJJ
=
4.ff
24ffLL
24gg
24aaJJ
!!linebreak:original
=||
8bb-L
16bb-L
16aaJJ
16aaLL
16gg
16gg
16ffJJ
=
16ffLL
16ee
16ee
16ddJJ
8cc
24ffLL
24gg
24aaJJ
!!linebreak:original
=
8bb-L
16bb-L
16aaJJ
16dddLL
16ccc
16bb-
16ggJJ
=
16aaLL
16gg
16aa
16bb-JJ
8ccc
24ffLL
24gg
24aaJJ
=
8bb-L
16bb-L
16aaJJ
16aaLL
16gg
16gg
16ffJJ
=
16ffLL
16ee
16ee
16ddJJ
8cc
24ggLL
24aa
24bb-JJ
=
16aaLL
16aa-X
16aan
16ccJJ
16ggLL
16gg-X
16ggn
16ccJJ
!!linebreak:original
=
8.ffL
16ffJk
8ffL
8eeJ
=||
16ffLL
16ff
16ff
.
16aaJJ
8aaL
.
8ggJ
=
16aaLL
16aa
16aa
.
16ggJJ
8ggL
.
8ffJ
=
16eeLL
16eeJ
8eeJ
16ddLL
16ddJ
8ddJ
=
8.ccL
.
16ffJk
8ffL
.
8eeJ
=
16ffLL
16ff
16ff
.
16aaJJ
8aaL
.
8ggJ
=
16aaLL
16aa
16aa
.
16ggJJ
8ggL
.
8ffJ
!!linebreak:original
=
8eeL
16ddL
16eeJJ
8ccL
16eeL
16ggJJ
=
8.ffL
16ffJk
8ffL
8eeJ
=||
16ffLL
16ff
16ff
.
16aaJJ
8aaL
.
8ggJ
=
16aaLL
16aa
16aa
.
16ggJJ
8ggL
.
8ffJ
=
16eeLL
16eeJ
8eeJ
16ddLL
16ddJ
8ddJ
=
8.ccL
.
16ffJk
8ffL
.
8eeJ
=
16ffLL
16ff
16ff
.
16aaJJ
8aaL
.
8ggJ
!!linebreak:original
=
16aaLL
16aa
16aa
.
16ggJJ
8ggL
.
8ffJ
!!linebreak:original
=
8eeL
16ddL
16eeJJ
8ccL
16eeL
16ggJJ
=
4ff
8cccL
8aaJ
=||
4.ff
16ffLL
16ffJJ
=
8ff
8r
4r
==
*-
!!!system-decoration: s1,s2
